X:27
T: Khupa tanz #2
O:klezmer
D: Abe Schwartz "Masters of Klezmer Music" v.1 (Global Village 126)
Z: John Chambers <jc@trillian.mit.edu>
M: 2/4
L: 1/16
K: Am
|: E2  | "Am"EAA^G "E7"GBBA | "Am"AccB "E7"Bddc | "Am"ceed "Dm"dffe | "Am"edcd e4 |
| "Dm"dffB "(E7)"BddB | "Am"ceeA AccA | "E7"e^GBd Tc3B | "Am"BcA2- A2 :|
|: (3GAB  | "C"Tc4- cGeG | Tc4- cGeG | cGeG cGeG | cGeG fedc |
| "G7"TB4- BGdG | TB6 g2- | gffe eddc | "C"dec2- c2 :|
|: E2  | "Am"e3c "E7"d3B | "Am"c3A "E7"B3E | "Am"A^GAB cBAc | "E"BA^GF E4 |
| "Dm"fedf "Am"edce | "E7"dcBd "Am"cBA2 | "E7"eddc cBBA | "Am"BcA2- A2 :|





